X:4825
L:1/8
M:6/8
K:G
 f | ecA AcA | ecA A2 g | ecA AcA | dBG G2 f | ecA AcA | ecA A2 e | faf geg | dBG G2 :: f | 
 e/f/ge cde | ecA A2 f | e/f/ge cde | dBG G2 f | e/f/ge cde | faf ege | fdf ece | dBG G2 :|

